.local/share/icons/Gruvbox-Plus-Dark/apps/16/ase.svg

<svg width="16" height="16" version="1.1" xmlns="http://www.w3.org/2000/svg">
  <defs>
    <style id="current-color-scheme" type="text/css">.ColorScheme-Text { color:#ebdbb2; } .ColorScheme-Highlight { color:#458588; }</style>
  </defs>
  <path class="ColorScheme-Text" d="m2.286 4c-0.316 0-0.572 0.256-0.572 0.571 0 0.316 0.256 0.572 0.572 0.572 0.315 0 0.571-0.256 0.571-0.572 0-0.315-0.256-0.571-0.571-0.571zm5.714 0c-0.316 0-0.571 0.256-0.571 0.571 0 0.316 0.255 0.572 0.571 0.572s0.571-0.256 0.571-0.572c0-0.315-0.255-0.571-0.571-0.571zm1.714 0c-0.315 0-0.571 0.256-0.571 0.571 0 0.316 0.256 0.572 0.571 0.572 0.316 0 0.572-0.256 0.572-0.572 0-0.315-0.256-0.571-0.572-0.571zm2.286 0c-0.316 0-0.571 0.256-0.571 0.571 0 0.316 0.255 0.572 0.571 0.572s0.571-0.256 0.571-0.572c0-0.315-0.255-0.571-0.571-0.571zm1.714 0c-0.315 0-0.571 0.256-0.571 0.571 0 0.316 0.256 0.572 0.571 0.572 0.316 0 0.572-0.256 0.572-0.572 0-0.315-0.256-0.571-0.572-0.571zm1.715 0c-0.316 0-0.572 0.256-0.572 0.571 0 0.316 0.256 0.572 0.572 0.572 0.315 0 0.571-0.256 0.571-0.572 0-0.315-0.256-0.571-0.571-0.571zm-14.86 1.714c-0.315 0-0.571 0.256-0.571 0.572 0 0.315 0.256 0.571 0.571 0.571 0.316 0 0.572-0.256 0.572-0.571 0-0.316-0.256-0.572-0.572-0.572zm3.429 0c-0.316 0-0.571 0.256-0.571 0.572 0 0.315 0.255 0.571 0.571 0.571s0.571-0.256 0.571-0.571c0-0.316-0.255-0.572-0.571-0.572zm2.857 0c-0.315 0-0.571 0.256-0.571 0.572 0 0.315 0.256 0.571 0.571 0.571 0.316 0 0.572-0.256 0.572-0.571 0-0.316-0.256-0.572-0.572-0.572zm5.143 0c-0.316 0-0.571 0.256-0.571 0.572 0 0.315 0.255 0.571 0.571 0.571s0.571-0.256 0.571-0.571c0-0.316-0.255-0.572-0.571-0.572zm-11.43 1.715c-0.315 0-0.571 0.255-0.571 0.571s0.256 0.571 0.571 0.571c0.316 0 0.572-0.255 0.572-0.571s-0.256-0.571-0.572-0.571zm1.715 0c-0.316 0-0.572 0.255-0.572 0.571s0.256 0.571 0.572 0.571c0.315 0 0.571-0.255 0.571-0.571s-0.256-0.571-0.571-0.571zm1.714 0c-0.316 0-0.571 0.255-0.571 0.571s0.255 0.571 0.571 0.571 0.571-0.255 0.571-0.571-0.255-0.571-0.571-0.571zm4 0c-0.316 0-0.571 0.255-0.571 0.571s0.255 0.571 0.571 0.571 0.571-0.255 0.571-0.571-0.255-0.571-0.571-0.571zm4 0c-0.316 0-0.571 0.255-0.571 0.571s0.255 0.571 0.571 0.571 0.571-0.255 0.571-0.571-0.255-0.571-0.571-0.571zm1.714 0c-0.315 0-0.571 0.255-0.571 0.571s0.256 0.571 0.571 0.571c0.316 0 0.572-0.255 0.572-0.571s-0.256-0.571-0.572-0.571zm-13.14 1.714c-0.315 0-0.571 0.256-0.571 0.571 0 0.316 0.256 0.572 0.571 0.572 0.316 0 0.572-0.256 0.572-0.572 0-0.315-0.256-0.571-0.572-0.571zm3.429 0c-0.316 0-0.571 0.256-0.571 0.571 0 0.316 0.255 0.572 0.571 0.572s0.571-0.256 0.571-0.572c0-0.315-0.255-0.571-0.571-0.571zm5.714 0c-0.315 0-0.571 0.256-0.571 0.571 0 0.316 0.256 0.572 0.571 0.572 0.316 0 0.572-0.256 0.572-0.572 0-0.315-0.256-0.571-0.572-0.571zm2.286 0c-0.316 0-0.571 0.256-0.571 0.571 0 0.316 0.255 0.572 0.571 0.572s0.571-0.256 0.571-0.572c0-0.315-0.255-0.571-0.571-0.571zm-11.43 1.714c-0.315 0-0.571 0.256-0.571 0.572 0 0.315 0.256 0.571 0.571 0.571 0.316 0 0.572-0.256 0.572-0.571 0-0.316-0.256-0.572-0.572-0.572zm3.429 0c-0.316 0-0.571 0.256-0.571 0.572 0 0.315 0.255 0.571 0.571 0.571s0.571-0.256 0.571-0.571c0-0.316-0.255-0.572-0.571-0.572zm2.286 0c-0.316 0-0.572 0.256-0.572 0.572 0 0.315 0.256 0.571 0.572 0.571 0.315 0 0.571-0.256 0.571-0.571 0-0.316-0.256-0.572-0.571-0.572zm1.714 0c-0.316 0-0.571 0.256-0.571 0.572 0 0.315 0.255 0.571 0.571 0.571s0.571-0.256 0.571-0.571c0-0.316-0.255-0.572-0.571-0.572zm4 0c-0.316 0-0.571 0.256-0.571 0.572 0 0.315 0.255 0.571 0.571 0.571s0.571-0.256 0.571-0.571c0-0.316-0.255-0.572-0.571-0.572zm1.714 0c-0.315 0-0.571 0.256-0.571 0.572 0 0.315 0.256 0.571 0.571 0.571 0.316 0 0.572-0.256 0.572-0.571 0-0.316-0.256-0.572-0.572-0.572zm1.715 0c-0.316 0-0.572 0.256-0.572 0.572 0 0.315 0.256 0.571 0.572 0.571 0.315 0 0.571-0.256 0.571-0.571 0-0.316-0.256-0.572-0.571-0.572z" fill="currentColor"/>
</svg>

<svg xmlns="http://www.w3.org/2000/svg" style="isolation:isolate" width="16" height="16" viewBox="0 0 16 16">
 <defs>
  <style id="current-color-scheme" type="text/css">
   .ColorScheme-Text { color:#ebdbb2; } .ColorScheme-Highlight { color:#458588; }
  </style>
  <linearGradient id="arrongin" x1="0%" x2="0%" y1="0%" y2="100%">
   <stop offset="0%" style="stop-color:#d79921; stop-opacity:1"/>
   <stop offset="100%" style="stop-color:#b57614; stop-opacity:1"/>
  </linearGradient>
  <linearGradient id="aurora" x1="0%" x2="0%" y1="0%" y2="100%">
   <stop offset="0%" style="stop-color:#83a598; stop-opacity:1"/>
   <stop offset="100%" style="stop-color:#b16286; stop-opacity:1"/>
  </linearGradient>
  <linearGradient id="fitdance" x1="0%" x2="0%" y1="0%" y2="100%">
   <stop offset="0%" style="stop-color:#8ec07c; stop-opacity:1"/>
   <stop offset="100%" style="stop-color:#458588; stop-opacity:1"/>
  </linearGradient>
  <linearGradient id="oomox" x1="0%" x2="0%" y1="0%" y2="100%">
   <stop offset="0%" style="stop-color:#458588; stop-opacity:1"/>
   <stop offset="100%" style="stop-color:#928374; stop-opacity:1"/>
  </linearGradient>
  <linearGradient id="rainblue" x1="0%" x2="0%" y1="0%" y2="100%">
   <stop offset="0%" style="stop-color:#b8bb26; stop-opacity:1"/>
   <stop offset="100%" style="stop-color:#076678; stop-opacity:1"/>
  </linearGradient>
  <linearGradient id="sunrise" x1="0%" x2="0%" y1="0%" y2="100%">
   <stop offset="0%" style="stop-color: #fe8019; stop-opacity:1"/>
   <stop offset="100%" style="stop-color: #fabd2f; stop-opacity:1"/>
  </linearGradient>
  <linearGradient id="telinkrin" x1="0%" x2="0%" y1="0%" y2="100%">
   <stop offset="0%" style="stop-color: #83a598; stop-opacity:1"/>
   <stop offset="100%" style="stop-color: #83a598; stop-opacity:1"/>
  </linearGradient>
  <linearGradient id="60spsycho" x1="0%" x2="0%" y1="0%" y2="100%">
   <stop offset="0%" style="stop-color: #fb4934; stop-opacity:1"/>
   <stop offset="25%" style="stop-color: #fabd2f; stop-opacity:1"/>
   <stop offset="50%" style="stop-color: #fe8019; stop-opacity:1"/>
   <stop offset="100%" style="stop-color: #689d6a; stop-opacity:1"/>
  </linearGradient>
  <linearGradient id="90ssummer" x1="0%" x2="0%" y1="0%" y2="100%">
   <stop offset="0%" style="stop-color: #b16286; stop-opacity:1"/>
   <stop offset="20%" style="stop-color: #8ec07c; stop-opacity:1"/>
   <stop offset="50%" style="stop-color: #fabd2f; stop-opacity:1"/>
   <stop offset="100%" style="stop-color: #458588; stop-opacity:1"/>
  </linearGradient>
  <linearGradient id="cyberneon" x1="0%" x2="0%" y1="0%" y2="100%">
    <stop offset="0" style="stop-color:#83a598; stop-opacity:1"/>
    <stop offset="1" style="stop-color:#b16286; stop-opacity:1"/>
  </linearGradient>
  <clipPath id="_clipPath_xQYJ4ma66ctzRxc06u0dzbaKLVR5FN2b">
   <rect width="16" height="16"/>
  </clipPath>
 </defs>
 <g clip-path="url(#_clipPath_xQYJ4ma66ctzRxc06u0dzbaKLVR5FN2b)">
  <rect style="fill:currentColor" class="ColorScheme-Text" width="4.625" height="3.594" x="17.09" y="-.09" transform="matrix(1,0,0,1,0,0)"/>
  <path style="fill:currentColor" class="ColorScheme-Text" d="M 2.286 4 C 1.97 4 1.714 4.256 1.714 4.571 C 1.714 4.887 1.97 5.143 2.286 5.143 C 2.601 5.143 2.857 4.887 2.857 4.571 C 2.857 4.256 2.601 4 2.286 4 Z M 8 4 C 7.684 4 7.429 4.256 7.429 4.571 C 7.429 4.887 7.684 5.143 8 5.143 C 8.316 5.143 8.571 4.887 8.571 4.571 C 8.571 4.256 8.316 4 8 4 Z M 9.714 4 C 9.399 4 9.143 4.256 9.143 4.571 C 9.143 4.887 9.399 5.143 9.714 5.143 C 10.03 5.143 10.286 4.887 10.286 4.571 C 10.286 4.256 10.03 4 9.714 4 Z M 12 4 C 11.684 4 11.429 4.256 11.429 4.571 C 11.429 4.887 11.684 5.143 12 5.143 C 12.316 5.143 12.571 4.887 12.571 4.571 C 12.571 4.256 12.316 4 12 4 Z M 13.714 4 C 13.399 4 13.143 4.256 13.143 4.571 C 13.143 4.887 13.399 5.143 13.714 5.143 C 14.03 5.143 14.286 4.887 14.286 4.571 C 14.286 4.256 14.03 4 13.714 4 Z M 15.429 4 C 15.113 4 14.857 4.256 14.857 4.571 C 14.857 4.887 15.113 5.143 15.429 5.143 C 15.744 5.143 16 4.887 16 4.571 C 16 4.256 15.744 4 15.429 4 Z M 0.571 5.714 C 0.256 5.714 0 5.97 0 6.286 C 0 6.601 0.256 6.857 0.571 6.857 C 0.887 6.857 1.143 6.601 1.143 6.286 C 1.143 5.97 0.887 5.714 0.571 5.714 Z M 4 5.714 C 3.684 5.714 3.429 5.97 3.429 6.286 C 3.429 6.601 3.684 6.857 4 6.857 C 4.316 6.857 4.571 6.601 4.571 6.286 C 4.571 5.97 4.316 5.714 4 5.714 Z M 6.857 5.714 C 6.542 5.714 6.286 5.97 6.286 6.286 C 6.286 6.601 6.542 6.857 6.857 6.857 C 7.173 6.857 7.429 6.601 7.429 6.286 C 7.429 5.97 7.173 5.714 6.857 5.714 Z M 12 5.714 C 11.684 5.714 11.429 5.97 11.429 6.286 C 11.429 6.601 11.684 6.857 12 6.857 C 12.316 6.857 12.571 6.601 12.571 6.286 C 12.571 5.97 12.316 5.714 12 5.714 Z M 0.571 7.429 C 0.256 7.429 0 7.684 0 8 C 0 8.316 0.256 8.571 0.571 8.571 C 0.887 8.571 1.143 8.316 1.143 8 C 1.143 7.684 0.887 7.429 0.571 7.429 Z M 2.286 7.429 C 1.97 7.429 1.714 7.684 1.714 8 C 1.714 8.316 1.97 8.571 2.286 8.571 C 2.601 8.571 2.857 8.316 2.857 8 C 2.857 7.684 2.601 7.429 2.286 7.429 Z M 4 7.429 C 3.684 7.429 3.429 7.684 3.429 8 C 3.429 8.316 3.684 8.571 4 8.571 C 4.316 8.571 4.571 8.316 4.571 8 C 4.571 7.684 4.316 7.429 4 7.429 Z M 8 7.429 C 7.684 7.429 7.429 7.684 7.429 8 C 7.429 8.316 7.684 8.571 8 8.571 C 8.316 8.571 8.571 8.316 8.571 8 C 8.571 7.684 8.316 7.429 8 7.429 Z M 12 7.429 C 11.684 7.429 11.429 7.684 11.429 8 C 11.429 8.316 11.684 8.571 12 8.571 C 12.316 8.571 12.571 8.316 12.571 8 C 12.571 7.684 12.316 7.429 12 7.429 Z M 13.714 7.429 C 13.399 7.429 13.143 7.684 13.143 8 C 13.143 8.316 13.399 8.571 13.714 8.571 C 14.03 8.571 14.286 8.316 14.286 8 C 14.286 7.684 14.03 7.429 13.714 7.429 Z M 0.571 9.143 C 0.256 9.143 0 9.399 0 9.714 C 0 10.03 0.256 10.286 0.571 10.286 C 0.887 10.286 1.143 10.03 1.143 9.714 C 1.143 9.399 0.887 9.143 0.571 9.143 Z M 4 9.143 C 3.684 9.143 3.429 9.399 3.429 9.714 C 3.429 10.03 3.684 10.286 4 10.286 C 4.316 10.286 4.571 10.03 4.571 9.714 C 4.571 9.399 4.316 9.143 4 9.143 Z M 9.714 9.143 C 9.399 9.143 9.143 9.399 9.143 9.714 C 9.143 10.03 9.399 10.286 9.714 10.286 C 10.03 10.286 10.286 10.03 10.286 9.714 C 10.286 9.399 10.03 9.143 9.714 9.143 Z M 12 9.143 C 11.684 9.143 11.429 9.399 11.429 9.714 C 11.429 10.03 11.684 10.286 12 10.286 C 12.316 10.286 12.571 10.03 12.571 9.714 C 12.571 9.399 12.316 9.143 12 9.143 Z M 0.571 10.857 C 0.256 10.857 0 11.113 0 11.429 C 0 11.744 0.256 12 0.571 12 C 0.887 12 1.143 11.744 1.143 11.429 C 1.143 11.113 0.887 10.857 0.571 10.857 Z M 4 10.857 C 3.684 10.857 3.429 11.113 3.429 11.429 C 3.429 11.744 3.684 12 4 12 C 4.316 12 4.571 11.744 4.571 11.429 C 4.571 11.113 4.316 10.857 4 10.857 Z M 6.286 10.857 C 5.97 10.857 5.714 11.113 5.714 11.429 C 5.714 11.744 5.97 12 6.286 12 C 6.601 12 6.857 11.744 6.857 11.429 C 6.857 11.113 6.601 10.857 6.286 10.857 Z M 8 10.857 C 7.684 10.857 7.429 11.113 7.429 11.429 C 7.429 11.744 7.684 12 8 12 C 8.316 12 8.571 11.744 8.571 11.429 C 8.571 11.113 8.316 10.857 8 10.857 Z M 12 10.857 C 11.684 10.857 11.429 11.113 11.429 11.429 C 11.429 11.744 11.684 12 12 12 C 12.316 12 12.571 11.744 12.571 11.429 C 12.571 11.113 12.316 10.857 12 10.857 Z M 13.714 10.857 C 13.399 10.857 13.143 11.113 13.143 11.429 C 13.143 11.744 13.399 12 13.714 12 C 14.03 12 14.286 11.744 14.286 11.429 C 14.286 11.113 14.03 10.857 13.714 10.857 Z M 15.429 10.857 C 15.113 10.857 14.857 11.113 14.857 11.429 C 14.857 11.744 15.113 12 15.429 12 C 15.744 12 16 11.744 16 11.429 C 16 11.113 15.744 10.857 15.429 10.857 Z"/>
 </g>
</svg>
